src/assets/BaseImg.svg

<svg width="307" height="161" viewBox="0 0 307 161" fill="none" xmlns="http://www.w3.org/2000/svg">
<rect x="0.5" y="0.5" width="306" height="158" rx="15.5" fill="#F3F5FB" stroke="#E0E0E0"/>
<g clip-path="url(#clip0_1453_44)">
<path d="M176.188 77.0999L162.208 62.8666L156.044 56.5899L137.458 37.6666L134.227 34.3766L130.813 30.8999L127.581 34.1899L132.875 39.6032V70.3332C132.875 72.8999 134.938 74.9999 137.458 74.9999H167.64L172.933 80.3899L176.188 77.0999ZM137.458 70.3332V44.2699L153.133 60.2299L151.208 62.6799L146.625 56.3332L139.75 65.6666H158.473L163.056 70.3332H137.458ZM143.944 37.6666L139.36 32.9999H169.542C172.063 32.9999 174.125 35.0999 174.125 37.6666V68.3966L169.542 63.7299V37.6666H143.944Z" fill="#454545"/>
</g>
<path d="M111.586 94.0312V111H108.539L101.086 100.219H100.945V111H97.4297V94.0312H100.523L107.93 104.812H108.094V94.0312H111.586ZM129.984 102.516C129.984 108.047 126.539 111.234 122.062 111.234C117.539 111.234 114.117 108.023 114.117 102.516C114.117 96.9844 117.539 93.7969 122.062 93.7969C126.539 93.7969 129.984 96.9844 129.984 102.516ZM126.398 102.516C126.398 98.8828 124.688 96.9141 122.062 96.9141C119.438 96.9141 117.703 98.8828 117.703 102.516C117.703 106.148 119.438 108.117 122.062 108.117C124.688 108.117 126.398 106.148 126.398 102.516ZM141.562 94.0312V111H138.047V94.0312H141.562ZM144.422 94.0312H148.781L153.492 105.539H153.68L158.391 94.0312H162.75V111H159.328V99.8906H159.188L154.758 110.93H152.414L147.984 99.8438H147.844V111H144.422V94.0312ZM168.445 111H164.648L170.531 94.0312H175.055L180.914 111H177.141L175.875 107.086H169.734L168.445 111ZM170.625 104.344H174.984L172.852 97.8516H172.734L170.625 104.344ZM193.312 99.4922C192.844 97.8984 191.555 96.9141 189.703 96.9141C187.078 96.9141 185.297 98.9297 185.297 102.492C185.297 106.078 187.031 108.117 189.727 108.117C192.152 108.117 193.594 106.746 193.641 104.602H189.961V101.953H197.039V104.062C197.039 108.516 193.992 111.234 189.703 111.234C184.945 111.234 181.711 107.906 181.711 102.539C181.711 97.0312 185.156 93.7969 189.633 93.7969C193.453 93.7969 196.406 96.1406 196.875 99.4922H193.312ZM199.617 111V94.0312H211.008V96.9375H203.133V101.062H210.422V103.969H203.133V108.094H211.031V111H199.617Z" fill="#454545"/>
<path d="M82.1279 125.525V126.82H68.5479V125.525H82.1279ZM80.5508 122.952V124.23H70.2412V119.067H80.4512V120.362H71.8018V122.952H80.5508ZM75.3213 127.982C78.5254 127.982 80.4512 128.962 80.4512 130.688C80.4512 132.415 78.5254 133.395 75.3213 133.378C72.1006 133.395 70.1582 132.415 70.1582 130.688C70.1582 128.962 72.1006 127.982 75.3213 127.982ZM75.3213 129.194C73.0469 129.211 71.752 129.742 71.752 130.688C71.752 131.635 73.0469 132.166 75.3213 132.166C77.5625 132.166 78.874 131.635 78.874 130.688C78.874 129.742 77.5625 129.211 75.3213 129.194ZM96.8369 126.654V127.933H83.2236V126.654H89.25V125.243H84.9668V121.458H93.5498V120.13H84.9336V118.885H95.127V122.62H86.5273V124.015H95.4258V125.243H90.8105V126.654H96.8369ZM95.21 128.979V133.295H93.6162V130.24H84.751V128.979H95.21ZM106.599 123.301V124.579H103.693V126.455C105.013 126.397 106.325 126.306 107.545 126.173L107.661 127.335C104.49 127.767 101.004 127.85 98.2148 127.85L97.999 126.588C99.269 126.58 100.688 126.563 102.133 126.521V124.579H99.3271V119.482H106.466V120.761H100.904V123.301H106.599ZM110.268 118.536V129.692H108.69V118.536H110.268ZM110.732 131.817V133.096H100.456V128.896H102.033V131.817H110.732ZM129.094 118.536V133.444H127.517V118.536H129.094ZM121.142 119.648C123.35 119.648 124.977 121.674 124.977 124.861C124.977 128.065 123.35 130.091 121.142 130.091C118.9 130.091 117.29 128.065 117.29 124.861C117.29 121.674 118.9 119.648 121.142 119.648ZM121.142 121.06C119.764 121.06 118.817 122.521 118.817 124.861C118.817 127.219 119.764 128.68 121.142 128.68C122.503 128.68 123.449 127.219 123.449 124.861C123.449 122.521 122.503 121.06 121.142 121.06ZM139.271 119.964V129.742H132.298V119.964H139.271ZM133.858 121.209V128.464H137.743V121.209H133.858ZM143.786 118.536V133.444H142.209V118.536H143.786ZM151.639 122.919C151.639 125.409 153.266 127.982 155.557 128.962L154.693 130.19C152.942 129.418 151.547 127.783 150.858 125.791C150.169 127.916 148.767 129.726 147.04 130.572L146.127 129.327C148.368 128.281 150.028 125.476 150.045 122.919V121.342H146.642V120.03H155.025V121.342H151.639V122.919ZM158.479 118.536V133.411H156.901V118.536H158.479ZM172.44 118.536V124.463H174.748V125.774H172.44V133.395H170.863V118.536H172.44ZM168.556 120.097C168.539 124.396 166.646 128.231 161.749 130.655L160.869 129.427C164.596 127.567 166.622 124.878 166.945 121.408H161.616V120.097H168.556ZM182.866 127.252V128.979H185.19V127.252H186.651V133.229H181.389V127.252H182.866ZM182.866 132H185.19V130.174H182.866V132ZM190.968 128.364C190.968 129.925 191.831 131.502 193.674 132.149L192.86 133.345C191.516 132.83 190.644 131.859 190.188 130.672C189.689 131.834 188.81 132.813 187.531 133.345L186.734 132.149C188.527 131.419 189.407 129.842 189.407 128.364V127.152H190.968V128.364ZM183.812 119.167C185.771 119.167 187.282 120.279 187.614 121.939H190.52V118.536H192.097V126.422H190.52V123.234H187.631C187.307 124.944 185.788 126.057 183.812 126.057C181.538 126.057 179.911 124.662 179.911 122.604C179.911 120.578 181.538 119.167 183.812 119.167ZM183.812 120.479C182.401 120.479 181.422 121.342 181.422 122.604C181.422 123.882 182.401 124.762 183.812 124.778C185.19 124.762 186.17 123.882 186.17 122.604C186.17 121.342 185.19 120.479 183.812 120.479ZM197.625 127.451V129.028H204.614V127.451H206.191V133.229H196.064V127.451H197.625ZM197.625 131.967H204.614V130.257H197.625V131.967ZM207.951 125.21V126.521H194.388V125.21H207.951ZM201.975 119.333C201.975 121.043 204.349 122.703 207.204 123.052L206.64 124.297C204.224 123.957 202.124 122.819 201.178 121.242C200.207 122.828 198.098 123.957 195.716 124.297L195.118 123.052C198.007 122.687 200.364 121.093 200.364 119.333V118.702H201.975V119.333ZM221.432 118.536V133.411H219.854V118.536H221.432ZM211.554 119.98V128.265C213.72 128.248 216.003 128.074 218.394 127.584L218.609 128.912C215.97 129.443 213.579 129.626 211.238 129.626H209.993V119.98H211.554ZM235.36 118.536V124.297H237.751V125.592H235.36V133.444H233.783V118.536H235.36ZM231.359 119.964V121.242H225.98V128.431C228.479 128.422 230.355 128.314 232.472 127.933L232.671 129.261C230.347 129.676 228.371 129.759 225.599 129.742H224.403V119.964H231.359ZM240.158 132.116C239.511 132.116 238.963 131.585 238.979 130.938C238.963 130.29 239.511 129.759 240.158 129.759C240.789 129.759 241.337 130.29 241.337 130.938C241.337 131.585 240.789 132.116 240.158 132.116Z" fill="#454545"/>
<defs>
<clipPath id="clip0_1453_44">
<rect width="55" height="56" fill="white" transform="translate(126 26)"/>
</clipPath>
</defs>
</svg>

<svg xmlns="http://www.w3.org/2000/svg" width="307" height="161" fill="none"><rect width="306" height="158" x=".5" y=".5" fill="#F3F5FB" stroke="#E0E0E0" rx="15.5"/><g clip-path="url(#a)"><path fill="#454545" d="m176.188 77.1-13.98-14.233-6.164-6.277-18.586-18.923-3.231-3.29-3.414-3.477-3.232 3.29 5.294 5.413v30.73c0 2.567 2.063 4.667 4.583 4.667h30.182l5.293 5.39zm-38.73-6.767V44.27l15.675 15.96-1.925 2.45-4.583-6.347-6.875 9.334h18.723l4.583 4.666zm6.486-32.666L139.36 33h30.182c2.521 0 4.583 2.1 4.583 4.667v30.73l-4.583-4.667V37.667z"/></g><path fill="#454545" d="M111.586 94.031V111h-3.047l-7.453-10.781h-.141V111H97.43V94.031h3.093l7.407 10.781h.164v-10.78zm18.398 8.485c0 5.531-3.445 8.718-7.922 8.718-4.523 0-7.945-3.211-7.945-8.718 0-5.532 3.422-8.72 7.945-8.72 4.477 0 7.922 3.188 7.922 8.72m-3.586 0c0-3.633-1.71-5.602-4.336-5.602-2.624 0-4.359 1.969-4.359 5.602s1.735 5.601 4.359 5.601c2.626 0 4.336-1.969 4.336-5.601m15.164-8.485V111h-3.515V94.031zm2.86 0h4.359l4.711 11.508h.188l4.711-11.508h4.359V111h-3.422V99.89h-.14l-4.43 11.04h-2.344l-4.43-11.086h-.14V111h-3.422zM168.445 111h-3.797l5.883-16.969h4.524L180.914 111h-3.773l-1.266-3.914h-6.141zm2.18-6.656h4.359l-2.132-6.492h-.118zm22.687-4.852c-.468-1.594-1.757-2.578-3.609-2.578-2.625 0-4.406 2.016-4.406 5.578 0 3.586 1.734 5.625 4.43 5.625 2.425 0 3.867-1.371 3.914-3.515h-3.68v-2.649h7.078v2.109c0 4.454-3.047 7.172-7.336 7.172-4.758 0-7.992-3.328-7.992-8.695 0-5.508 3.445-8.742 7.922-8.742 3.82 0 6.773 2.344 7.242 5.695zM199.617 111V94.031h11.391v2.906h-7.875v4.125h7.289v2.907h-7.289v4.125h7.898V111zM82.128 125.525v1.295h-13.58v-1.295zm-1.577-2.573v1.278H70.24v-5.163h10.21v1.295h-8.65v2.59zm-5.23 5.03c3.204 0 5.13.98 5.13 2.706 0 1.727-1.926 2.707-5.13 2.69-3.22.017-5.163-.963-5.163-2.69s1.943-2.706 5.163-2.706m0 1.212c-2.274.017-3.569.548-3.569 1.494 0 .947 1.295 1.478 3.57 1.478 2.24 0 3.552-.531 3.552-1.478 0-.946-1.311-1.477-3.553-1.494m21.516-2.54v1.279H83.224v-1.279h6.026v-1.411h-4.283v-3.785h8.583v-1.328h-8.616v-1.245h10.193v3.735h-8.6v1.395h8.899v1.228H90.81v1.411zm-1.627 2.325v4.316h-1.594v-3.055h-8.865v-1.261zm11.389-5.678v1.278h-2.906v1.876a61 61 0 0 0 3.852-.282l.116 1.162c-3.171.432-6.657.515-9.446.515l-.216-1.262a183 183 0 0 0 4.134-.067v-1.942h-2.806v-5.097h7.139v1.279h-5.562v2.54zm3.669-4.765v11.156h-1.578v-11.156zm.464 13.281v1.279h-10.276v-4.2h1.577v2.921zm18.362-13.281v14.908h-1.577v-14.908zm-7.952 1.112c2.208 0 3.835 2.026 3.835 5.213 0 3.204-1.627 5.23-3.835 5.23-2.242 0-3.852-2.026-3.852-5.23 0-3.187 1.61-5.213 3.852-5.213m0 1.412c-1.378 0-2.325 1.461-2.325 3.801 0 2.358.947 3.819 2.325 3.819 1.361 0 2.307-1.461 2.307-3.819 0-2.34-.946-3.801-2.307-3.801m18.129-1.096v9.778h-6.973v-9.778zm-5.413 1.245v7.255h3.885v-7.255zm9.928-2.673v14.908h-1.577v-14.908zm7.853 4.383c0 2.49 1.627 5.063 3.918 6.043l-.864 1.228c-1.751-.772-3.146-2.407-3.835-4.399-.689 2.125-2.091 3.935-3.818 4.781l-.913-1.245c2.241-1.046 3.901-3.851 3.918-6.408v-1.577h-3.403v-1.312h8.383v1.312h-3.386zm6.84-4.383v14.875h-1.578v-14.875zm13.961 0v5.927h2.308v1.311h-2.308v7.621h-1.577v-14.859zm-3.884 1.561c-.017 4.299-1.91 8.134-6.807 10.558l-.88-1.228c3.727-1.86 5.753-4.549 6.076-8.019h-5.329v-1.311zm14.31 7.155v1.727h2.324v-1.727h1.461v5.977h-5.262v-5.977zm0 4.748h2.324v-1.826h-2.324zm8.102-3.636c0 1.561.863 3.138 2.706 3.785l-.814 1.196c-1.344-.515-2.216-1.486-2.672-2.673-.499 1.162-1.378 2.141-2.657 2.673l-.797-1.196c1.793-.73 2.673-2.307 2.673-3.785v-1.212h1.561zm-7.156-9.197c1.959 0 3.47 1.112 3.802 2.772h2.906v-3.403h1.577v7.886h-1.577v-3.188h-2.889c-.324 1.71-1.843 2.823-3.819 2.823-2.274 0-3.901-1.395-3.901-3.453 0-2.026 1.627-3.437 3.901-3.437m0 1.312c-1.411 0-2.39.863-2.39 2.125 0 1.278.979 2.158 2.39 2.174 1.378-.016 2.358-.896 2.358-2.174 0-1.262-.98-2.125-2.358-2.125m13.813 6.972v1.577h6.989v-1.577h1.577v5.778h-10.127v-5.778zm0 4.516h6.989v-1.71h-6.989zm10.326-6.757v1.311h-13.563v-1.311zm-5.976-5.877c0 1.71 2.374 3.37 5.229 3.719l-.564 1.245c-2.416-.34-4.516-1.478-5.462-3.055-.971 1.586-3.08 2.715-5.462 3.055l-.598-1.245c2.889-.365 5.246-1.959 5.246-3.719v-.631h1.611zm19.457-.797v14.875h-1.578v-14.875zm-9.878 1.444v8.285c2.166-.017 4.449-.191 6.84-.681l.215 1.328c-2.639.531-5.03.714-7.371.714h-1.245v-9.646zm23.806-1.444v5.761h2.391v1.295h-2.391v7.852h-1.577v-14.908zm-4.001 1.428v1.278h-5.379v7.189c2.499-.009 4.375-.117 6.492-.498l.199 1.328c-2.324.415-4.3.498-7.072.481h-1.196v-9.778zm8.799 12.152c-.647 0-1.195-.531-1.179-1.178-.016-.648.532-1.179 1.179-1.179.631 0 1.179.531 1.179 1.179 0 .647-.548 1.178-1.179 1.178"/><defs><clipPath id="a"><path fill="#fff" d="M126 26h55v56h-55z"/></clipPath></defs></svg>
